contributed-vectors/bualuangm.svg

<svg width="192" height="192" viewBox="0 0 192 192" fill="none" xmlns="http://www.w3.org/2000/svg">
<g clip-path="url(#clip0)">
<path d="M172.5 29.1V162.9C172.5 168.2 168.2 172.5 162.9 172.5H29.1C23.8 172.5 19.5 168.2 19.5 162.9V29.1C19.5 23.8 23.8 19.5 29.1 19.5H163C168.2 19.5 172.5 23.8 172.5 29.1Z" fill="#728DBE"/>
<path d="M112.525 113.574C109.371 116.074 106.053 118.333 102.759 120.771C102.759 120.771 100.843 122.157 100.072 122.702L99.6044 122.616C99.6665 119.758 98.7709 116.323 100.998 114.283C104.23 110.482 107.65 106.829 110.461 102.772C110.461 102.772 113.359 98.6283 114.729 96.6189C115.181 96.7122 115.337 97.2342 115.399 97.5769C116.887 102.92 117.377 108.239 112.525 113.574L112.525 113.574ZM95.4997 112.055L95.2348 111.899C91.0447 106.93 86.2938 101.323 82.1193 96.3383C81.3638 95.0766 80.5927 93.8617 80.5149 92.2339C80.4583 90.9566 80.3826 89.7884 81.4261 88.2074C81.4261 88.2074 82.1269 87.1947 82.3138 86.891C82.3138 86.891 90.8732 74.8816 95.3749 69.1805L95.4992 69.1024L95.6236 69.1805C100.117 74.8816 108.661 86.891 108.661 86.891C108.864 87.1945 109.565 88.2074 109.565 88.2074C110.608 89.7884 110.538 90.9566 110.476 92.2339C110.398 93.8617 109.627 95.0766 108.879 96.3383C104.697 101.323 99.9461 106.93 95.756 111.899L95.4997 112.055ZM91.3565 122.616L90.9049 122.702C90.1261 122.157 88.2101 120.771 88.2101 120.771C84.9157 118.333 81.5901 116.074 78.4436 113.574C73.5992 108.239 74.0899 102.92 75.5774 97.5771C75.6339 97.2346 75.7956 96.7126 76.2394 96.6191C77.6102 98.6285 80.4997 102.772 80.4997 102.772C83.3191 106.83 86.7459 110.482 89.978 114.283C92.2055 116.324 91.2943 119.758 91.3566 122.617L91.3565 122.616ZM121.661 97.7485C120.999 95.2562 120.041 93.4104 118.514 90.591C118 89.781 117.346 88.8853 116.77 87.943C110.072 78.005 96.863 60.6838 95.6558 59.57L95.4997 59.5L95.3517 59.57C94.1367 60.6838 80.9198 78.005 74.2297 87.943C73.6456 88.8853 72.9991 89.781 72.4929 90.591C70.9586 93.4104 70.0084 95.2562 69.3386 97.7485C68.5131 101.354 68.4741 105.841 69.2296 109.517C69.8993 112.757 72.9757 116.059 76.0677 118.536L80.7951 122.282C80.7951 122.282 94.012 131.815 95.2348 132.43L95.4999 132.5L95.7571 132.43C96.9876 131.815 110.204 122.282 110.204 122.282L114.94 118.536C118.032 116.059 121.1 112.757 121.77 109.517C122.525 105.841 122.487 101.354 121.661 97.7485Z" fill="white"/>
</g>
<defs>
<clipPath id="clip0">
<rect width="192" height="192" fill="white"/>
</clipPath>
</defs>
</svg>

<svg xmlns="http://www.w3.org/2000/svg" width="192" height="192" fill="none"><g clip-path="url(#a)"><path fill="#728DBE" d="M172.5 29.1v133.8c0 5.3-4.3 9.6-9.6 9.6H29.1c-5.3 0-9.6-4.3-9.6-9.6V29.1c0-5.3 4.3-9.6 9.6-9.6H163c5.2 0 9.5 4.3 9.5 9.6Z"/><path fill="#fff" d="M112.525 113.574c-3.154 2.5-6.472 4.759-9.766 7.197 0 0-1.916 1.386-2.687 1.931l-.468-.086c.063-2.858-.833-6.293 1.394-8.333 3.232-3.801 6.652-7.454 9.463-11.511 0 0 2.898-4.144 4.268-6.153.452.093.608.615.67.958 1.488 5.343 1.978 10.662-2.874 15.997ZM95.5 112.055l-.265-.156c-4.19-4.969-8.941-10.576-13.116-15.56-.755-1.262-1.526-2.477-1.604-4.105-.057-1.277-.132-2.446.911-4.027 0 0 .7-1.012.888-1.316 0 0 8.56-12.01 13.06-17.71l.125-.079.125.078c4.493 5.702 13.037 17.711 13.037 17.711.203.303.904 1.316.904 1.316 1.043 1.581.973 2.75.911 4.027-.078 1.628-.849 2.843-1.597 4.104-4.182 4.985-8.933 10.592-13.123 15.561l-.256.156Zm-4.144 10.561-.451.086c-.779-.545-2.695-1.931-2.695-1.931-3.294-2.438-6.62-4.697-9.766-7.197-4.845-5.335-4.354-10.654-2.867-15.997.057-.342.219-.864.662-.958 1.371 2.01 4.26 6.153 4.26 6.153 2.82 4.058 6.247 7.71 9.479 11.511 2.228 2.041 1.316 5.475 1.379 8.334v-.001Zm30.305-24.867c-.662-2.493-1.62-4.339-3.147-7.158-.514-.81-1.168-1.706-1.744-2.648-6.698-9.938-19.907-27.26-21.114-28.373l-.156-.07-.148.07C94.137 60.684 80.92 78.005 74.23 87.943c-.584.942-1.23 1.838-1.737 2.648-1.534 2.82-2.485 4.665-3.154 7.158-.826 3.605-.865 8.092-.11 11.768.67 3.24 3.747 6.542 6.839 9.019l4.727 3.746s13.217 9.533 14.44 10.148l.265.07.257-.07c1.23-.615 14.447-10.148 14.447-10.148l4.736-3.746c3.092-2.477 6.16-5.779 6.83-9.019.755-3.676.717-8.163-.109-11.768Z"/></g><defs><clipPath id="a"><path fill="#fff" d="M0 0h192v192H0z"/></clipPath></defs></svg>
